contributed-vectors/codora.svg

<?xml version="1.0" encoding="UTF-8"?>
<svg id="svg196" version="1.1" viewBox="0 0 192 192" xml:space="preserve" xmlns="http://www.w3.org/2000/svg"><defs id="defs184"><style id="style182">.a{fill:none;stroke:#b1b5bd;stroke-linecap:round;stroke-linejoin:round;isolation:isolate;opacity:0.63;}</style></defs><path id="path1332" transform="translate(1,-1)" d="m171 161.96c0 6.099-4.944 11.043-11.043 11.043h-129.91c-6.099 0-11.043-4.944-11.043-11.043v-129.91c0-6.099 4.944-11.043 11.043-11.043h129.91c6.099 0 11.043 4.944 11.043 11.043z" fill="#54688c"/><g id="g1384" transform="matrix(.93023 0 0 .93023 7.6279 5.7674)" fill="#fff">
		<path id="path1334" d="m82 54h-30v30h30zm-6 24h-17v-17h17z"/>
		<rect id="rect1336" x="64" y="66" width="6" height="6"/>
		<path id="path1338" d="m52 140h30v-31h-30zm7-24h17v17h-17z"/>
		<rect id="rect1340" x="64" y="121" width="6" height="7"/>
		<path id="path1342" d="m108 54v30h30v-30zm23 24h-17v-17h17z"/>
		<rect id="rect1344" x="120" y="66" width="6" height="6"/>
		<rect id="rect1346" x="89" y="63" width="6" height="7"/>
		<polygon id="polygon1348" points="102 84 102 70 95 70 95 76 89 76 89 97 95 97 95 84"/>
		<rect id="rect1350" x="89" y="103" width="6" height="10"/>
		<rect id="rect1352" x="89" y="120" width="6" height="7"/>
		<rect id="rect1354" x="95" y="97" width="6" height="6"/>
		<rect id="rect1356" x="101" y="90" width="21" height="7"/>
		<rect id="rect1358" x="122" y="97" width="9" height="6"/>
		<polygon id="polygon1360" points="108 140 108 133 101 133 101 127 95 127 95 140 101.49 140"/>
		<rect id="rect1362" x="116" y="133" width="6" height="7"/>
		<rect id="rect1364" x="122" y="126" width="7" height="7"/>
		<rect id="rect1366" x="108" y="120" width="14" height="6"/>
		<polygon id="polygon1368" points="122 120 131.44 120 138 120 138 113.12 138 103 131 103 131 113 122 113"/>
		<rect id="rect1370" x="131" y="90" width="7" height="7"/>
		<rect id="rect1372" x="114" y="103" width="8" height="6"/>
		<rect id="rect1374" x="129" y="133" width="9" height="7"/>
		<polygon id="polygon1376" points="101 113 95 113 95 120 101.49 120 108 120 108 103 101 103"/>
		<polygon id="polygon1378" points="82 90 76 90 76 97 68 97 68 103 89 103 89 97 82 97"/>
		<polygon id="polygon1380" points="52 91.561 52 96.675 52 103 59 103 59 97 68 97 68 90 52 90"/>
		<rect id="rect1382" x="95" y="54" width="7" height="9"/>
	</g></svg>

<svg viewBox="0 0 192 192" version="1.1" id="svg196" xml:space="preserve" xmlns="http://www.w3.org/2000/svg"><defs id="defs184"><style id="style182"></style></defs><path fill="#99bef9" d="M171 161.957c0 6.099-4.944 11.043-11.043 11.043H30.043C23.944 173 19 168.056 19 161.957V32.043C19 25.944 23.944 21 30.043 21h129.914C166.056 21 171 25.944 171 32.043z" id="path1332" style="overflow:visible;fill:#54688c" transform="translate(1 -1)"/><g id="g1384" style="overflow:visible" transform="translate(1 -1)" fill="#fff"><path d="M82 54H52v30h30zm-6 24H59V61h17z" id="path1334"/><path id="rect1336" d="M64 66h6v6h-6z"/><path d="M52 140h30v-31H52zm7-24h17v17H59z" id="path1338"/><path id="rect1340" d="M64 121h6v7h-6z"/><path d="M108 54v30h30V54zm23 24h-17V61h17z" id="path1342"/><path id="rect1344" d="M120 66h6v6h-6z"/><path id="rect1346" d="M89 63h6v7h-6z"/><path id="polygon1348" d="M95 76h-6v21h6V84h7V70h-7z"/><path id="rect1350" d="M89 103h6v10h-6z"/><path id="rect1352" d="M89 120h6v7h-6z"/><path id="rect1354" d="M95 97h6v6h-6z"/><path id="rect1356" d="M101 90h21v7h-21z"/><path id="rect1358" d="M122 97h9v6h-9z"/><path id="polygon1360" d="M101 127h-6v13h13v-7h-7z"/><path id="rect1362" d="M116 133h6v7h-6z"/><path id="rect1364" d="M122 126h7v7h-7z"/><path id="rect1366" d="M108 120h14v6h-14z"/><path id="polygon1368" d="M138 113.115V103h-7v10h-9v7h16z"/><path id="rect1370" d="M131 90h7v7h-7z"/><path id="rect1372" d="M114 103h8v6h-8z"/><path id="rect1374" d="M129 133h9v7h-9z"/><path id="polygon1376" d="M101.486 120H108v-17h-7v10h-6v7z"/><path id="polygon1378" d="M68 97v6h21v-6h-7v-7h-6v7z"/><path id="polygon1380" d="M59 103v-6h9v-7H52v13z"/><path id="rect1382" d="M95 54h7v9h-7z"/></g></svg>
